fs/slide_eraser_24_filled.svg

<svg viewBox="0 0 24 24" fill="none" xmlns="http://www.w3.org/2000/svg" height="1em" width="1em">
  <path d="M4.75 4C3.23122 4 2 5.23122 2 6.75V17.25C2 18.7688 3.23122 20 4.75 20H12.576C11.7733 19.018 11.83 17.5682 12.7459 16.6523L17.6635 11.7347C18.6398 10.7584 20.2227 10.7584 21.1991 11.7347L22 12.5356V6.75C22 5.23122 20.7688 4 19.25 4H4.75Z" fill="#212121"/>
  <path d="M20.4919 12.4418C19.9062 11.856 18.9564 11.856 18.3706 12.4417L15.26 15.5524L19.4671 19.7595L22.5777 16.6489C23.1635 16.0631 23.1635 15.1133 22.5777 14.5275L20.4919 12.4418Z" fill="#212121"/>
  <path d="M13.453 17.3593L14.5529 16.2595L18.76 20.4666L17.6601 21.5665C17.0743 22.1522 16.1246 22.1522 15.5388 21.5665L13.453 19.4807C12.8672 18.8949 12.8672 17.9451 13.453 17.3593Z" fill="#212121"/>
</svg>

<svg viewBox="0 0 24 24" fill="none" xmlns="http://www.w3.org/2000/svg" height="1em" width="1em">
  <path d="M4.75 4A2.75 2.75 0 0 0 2 6.75v10.5A2.75 2.75 0 0 0 4.75 20h7.826a2.5 2.5 0 0 1 .17-3.348l4.917-4.917a2.5 2.5 0 0 1 3.536 0l.801.8V6.75A2.75 2.75 0 0 0 19.25 4H4.75Z" fill="#212121"/>
  <path d="M20.492 12.442a1.5 1.5 0 0 0-2.121 0l-3.111 3.11 4.207 4.207 3.11-3.11a1.5 1.5 0 0 0 0-2.122l-2.085-2.085Zm-7.039 4.918 1.1-1.1 4.207 4.207-1.1 1.1a1.5 1.5 0 0 1-2.121 0l-2.086-2.086a1.5 1.5 0 0 1 0-2.122Z" fill="#212121"/>
</svg>
